X: 45
T:Fit's Come on me Now
M:9/8
L:1/8
K:F
F2 cAFc d2 c|F2 cAFc f2 c|F2 cAFc d2 e|fcd cAF G2 F|F2 cAFc d2 c|F2 cAFc f2 c|F2 cAFc d2 e|fcd cAF G2 F:|
|: f2 c fcf g2 a|f2 c faf g2 c|f2 c fcf g2 a|fcd cAF G2 Ff2 c fc f g2 a|f2 c faf g2 c|f2 c fcf g2 a| fcd cAF G2 F:|

